X:1
T:Title
%%score { ( 1 3 ) | ( 2 4 ) }
L:1/8
Q:1/4=90
M:6/8
K:F
V:1 treble nm="Grand Piano"
V:3 treble 
V:2 bass 
V:4 bass 
V:1
 A_A=A F2 G | C3 .F3 | FGA [DFB]2 [^CFB] | A6 | A_A=A c2 A | [EG]3 .F3 | FEF [=B,FA]2 [B,DG] | %7
w: A.~M.~Pace * * * *|||||||
 [EG]6 | A_A=A F2 G | C3 .F3 | FG[FA] [FB]2 [Fc] | [Fd]6 | [Fd][Fd][Fd] [Fc]2 [CFA] | %13
w: ||||||
 [B,EG]3 .[A,DF]3 | [DFB][DFB][DFB] [CEA]2 [B,EG] | [A,F]6 | [FA]3 [EG]3 | [DF]3 z3 | %18
w: |||||
 [A,F]E[A,DF] [B,FG]2 [D_A] | [^CEA]6 | .C3 c3 | [_Ec]3[K:bass] [DB]3 | %22
w: ||||
 [FA][EG][A,F] [B,EG]2 [B,CE][Q:1/4=89][Q:1/4=87][Q:1/4=86][Q:1/4=85][Q:1/4=83][Q:1/4=82][Q:1/4=81][Q:1/4=79][Q:1/4=78][Q:1/4=77] | %23
w: |
 [F,A,CF]6[Q:1/4=75][Q:1/4=74][Q:1/4=73][Q:1/4=71][Q:1/4=70][Q:1/4=69] |] %24
w: |
V:2
 [F,CF][F,=B,F][F,CF] [F,A,C]2 [F,_B,C] | [F,A,]3 .[F,A,C]3 | [F,A,][F,B,F][F,CF] B,,2 B,, | %3
 [F,CF]6 | [F,CF][F,=B,F][F,CF] [F,A,F]2 [F,B,F] | [C,B,]3 .[D,A,D]3 | %6
 [D,A,D][D,_A,D][D,=A,D] [G,,G,]2 [G,,G,] | [C,C]6 | [F,CF][F,=B,F][F,CF] [F,A,C]2 [F,_B,C] | %9
 [F,A,]3 .[F,A,C]3 | [F,A,][F,B,F][_E,C] [D,B,]2 [C,A,] | [B,,B,]6 | %12
 [B,,B,][B,,B,][B,,B,] [F,A,]2 F, | C,3 .D,3 | B,,B,,B,, C,2 C, | F,6 | F,2 F, C,2 C, | %17
 D,2 D, A,,3 | z _A,D, B,,2 B,, | A,,6 | F,2 F, F2- [F,F] | .[A,,F,]3 .[B,,F,]3 | .F,3 z3 | F,,6 |] %24
V:3
 x6 | x6 | x6 | x6 | x6 | x6 | x6 | x6 | x6 | x6 | x6 | x6 | x6 | x6 | x6 | x6 | C2 C C2 B, | %17
 A,2 A, [A,^CE]3 | .D3 z3 | x6 | [FA]2- [CFA] z2 A, | z2[K:bass] [A,,F,] z2 [B,,F,] | x6 | x6 |] %24
V:4
 x6 | x6 | x6 | x6 | x6 | x6 | x6 | x6 | x6 | x6 | x6 | x6 | x6 | x6 | x6 | x6 | x6 | x6 | %18
 .D,3 z3 | x6 | z3 .[F,A,]3 | x6 | C,-[C,G,]C, C,2 C, | x6 |] %24

